X: 1
T: SHEPHERD'S HEY
S: MDT
O: Headington
R: A.(A2B2)4.A
B: Morris Ring
Z: 2005 John Chambers <jc@trillian.mit.edu>
M: 4/4
L: 1/8
K: G
P: A
|: B2d2 c2c2 | BcdB A2A2 | BcdB ccBc | d2A2 G3A :|
P: B
|: B2G2 c3A | B2G2 A4 | BcdB cBcA |1 d2A2 G3A :|2 d2A2 G4 ||
